X:1
T:Title
%%score { ( 1 3 ) | ( 2 4 ) }
L:1/8
Q:1/4=84
M:4/4
K:Ab
V:1 treble nm="Grand Piano"
V:3 treble 
V:2 bass 
V:4 bass 
V:1
 E2 A>A A4 | E2 B>G [CEA]4 | E2 A>d d2 c>B | A2 G>A B4 | E2 A>A A4 | E2 B>G [CEA]4 | %6
w: Richard~Wagner * * *||||||
 [CE]2 [CEA]>[Ec] [Ee]2 [Gc]>A | F2 B>c [A,CA](3A/A/A/ AA | d2 c>B F2 F>[DF] | %9
w: |||
 G2 A>B B(3e/e/e/ ee | d2 c>B F2 F>[DF] | z4 B4 | E2 A>A A4 | E2 B>G [CEA]4 | %14
w: |||||
 [CE]2 [CEA]>[Ec] [Ee]2 [Gc]>[CA] | %15
w: |
[M:39/32] z/4 z/4 z/4 z/4 z/4 z/4 z/4 z/4 z/4 z/4 z/4 z/4 z/4 z/4 z/4 z/4 z/4 z/4 z/ [Ge]3/4 z/4 z/4 z/4 z/4 z/4 z/4 z/4 z/4 z/4 z/4 z/4 z/4 z/4 z/4 z/ |] %16
w: |
V:2
 [A,C]2 [A,CE]>[A,CE] [A,CE]4 | [A,C]2 [E,DE]>[E,B,E] A,,4 | %2
 [A,C]2 [A,CE]>[A,FA] [A,FA]2 [A,EA]>[K:bass][A,DE] | [A,CE]2 [F,A,=D]>[F,A,D] [E,G,E]4 | %4
 [A,C]2 [A,CE]>[A,CE] [A,CE]4 | [A,C]2 [E,DE]>[E,B,E] A,,4 | A,2 A,>A, [C,G,]2 [E,G,]>[F,A,C] | %7
 [D,A,D]2 [E,G,D]>[E,G,E] A,,(3A,/A,/A,/ A,A, | [FA]2 [EG]>[DF] [B,D]2 [B,D]>[K:bass][B,,B,] | %9
 [E,B,D]2 [E,A,C]>[E,G,E] [E,G,E][K:treble](3E/E/E/ EE | %10
 [FA]2 [EG]>[DF][K:bass] [B,D]2 [B,D]>[B,,B,] | [E,B,D]2 [E,A,C]>[E,G,E] [E,E]4 | %12
 [A,C]2 [A,CE]>[A,CE] [A,CE]4 | [A,C]2 [E,DE]>[E,B,E] A,,4 | A,2 A,>A, [C,G,]2 [E,G,]>[F,A,] | %15
[M:39/32] [D,D]/4-[D,D]/4-[D,D]/4-[D,D]/4-[D,D]/4-[D,D]/4-[D,D]/4-[D,D]/4-[D,D]/-<[D,D]/B,/4-B,/4-B,/4-B,/4-B,/4-B,/4-B,/-<B,/[A,,A,]/4-[A,,A,]/4-[A,,A,]/4-[A,,A,]/4-[A,,A,]/4-[A,,A,]/4-[A,,A,]/4-[A,,A,]/4-[A,,A,]/4-[A,,A,]/4-[A,,A,]/4-[A,,A,]/4-[A,,A,]/4-[A,,A,]/-<[A,,A,]/ |] %16
V:3
 x8 | x8 | x8 | x8 | x8 | x8 | x8 | x8 | x8 | x8 | x8 | G2 A>B z2 D2 | x8 | x8 | x8 | %15
[M:39/32] [Af]/4-[Af]/4-[Af]/4-[Af]/4-[Af]/4-[Af]/4-[Af]/4-[Af]/4-[Af]/-<[Af]/[Ge]/4-[Ge]/4-[Ge]/4-[Ge]/4-[Ge]/-<[Ge]/ z/ [CEA]/4-[CEA]/4-[CEA]/4-[CEA]/4-[CEA]/4-[CEA]/4-[CEA]/4-[CEA]/4-[CEA]/4-[CEA]/4-[CEA]/4-[CEA]/4-[CEA]/4-[CEA]/-<[CEA]/ |] %16
V:4
 x8 | x8 | x15/2[K:bass] x/ | x8 | x8 | x8 | x8 | x8 | x15/2[K:bass] x/ | x5[K:treble] x3 | %10
 x4[K:bass] x4 | z4 G,2 z2 | x8 | x8 | x8 | %15
[M:39/32] z/4 z/4 z/4 z/4 z/4 z/4 z/4 z/4 z/4 z/4 z/ E,/4-E,/4-E,/4-E,/4-E,/-<E,/[E,D]3/4 z/4 z/4 z/4 z/4 z/4 z/4 z/4 z/4 z/4 z/4 z/4 z/4 z/4 z/4 z/ |] %16

